assets/icons/24px/stroke/macintosh-24px.svg

<svg width="24" height="24" viewBox="0 0 24 24" fill="none" xmlns="http://www.w3.org/2000/svg">
<path fill-rule="evenodd" clip-rule="evenodd" d="M8.43417 2C8.45604 2 8.47799 2 8.5 2L15.5658 2C16.4523 1.99995 17.2161 1.99991 17.8278 2.08215C18.4833 2.17028 19.1117 2.36902 19.6213 2.87868C20.131 3.38835 20.3297 4.0167 20.4179 4.67221C20.5001 5.28388 20.5001 6.0477 20.5 6.9342V14.0658C20.5001 14.9523 20.5001 15.7161 20.4179 16.3278C20.3297 16.9833 20.131 17.6117 19.6213 18.1213C19.1117 18.631 18.4833 18.8297 17.8278 18.9179C17.2161 19.0001 16.4523 19.0001 15.5658 19H8.4342C7.5477 19.0001 6.78388 19.0001 6.17221 18.9179C5.5167 18.8297 4.88835 18.631 4.37868 18.1213C3.86902 17.6117 3.67028 16.9833 3.58215 16.3278C3.49991 15.7161 3.49995 14.9523 3.5 14.0658L3.5 7C3.5 6.97799 3.5 6.95604 3.5 6.93417C3.49995 6.04769 3.49991 5.28387 3.58215 4.67221C3.67028 4.0167 3.86902 3.38835 4.37868 2.87868C4.88835 2.36902 5.5167 2.17028 6.17221 2.08215C6.78387 1.99991 7.54769 1.99995 8.43417 2ZM6.43871 4.06431C6.00497 4.12263 5.86902 4.21677 5.7929 4.2929C5.71677 4.36902 5.62263 4.50497 5.56431 4.93871C5.50213 5.40121 5.5 6.02893 5.5 7V14C5.5 14.9711 5.50213 15.5988 5.56431 16.0613C5.62263 16.495 5.71677 16.631 5.7929 16.7071C5.86902 16.7832 6.00497 16.8774 6.43871 16.9357C6.90121 16.9979 7.52893 17 8.5 17H15.5C16.4711 17 17.0988 16.9979 17.5613 16.9357C17.995 16.8774 18.131 16.7832 18.2071 16.7071C18.2832 16.631 18.3774 16.495 18.4357 16.0613C18.4979 15.5988 18.5 14.9711 18.5 14V7C18.5 6.02893 18.4979 5.40122 18.4357 4.93871C18.3774 4.50497 18.2832 4.36902 18.2071 4.2929C18.131 4.21677 17.995 4.12263 17.5613 4.06431C17.0988 4.00213 16.4711 4 15.5 4H8.5C7.52893 4 6.90122 4.00213 6.43871 4.06431Z" fill="white"/>
<path d="M8 7.5C8 7.0286 8 6.79289 8.14645 6.64645C8.29289 6.5 8.5286 6.5 9 6.5H15C15.4714 6.5 15.7071 6.5 15.8536 6.64645C16 6.79289 16 7.0286 16 7.5V10C16 10.4714 16 10.7071 15.8536 10.8536C15.7071 11 15.4714 11 15 11H9C8.5286 11 8.29289 11 8.14645 10.8536C8 10.7071 8 10.4714 8 10V7.5Z" fill="white"/>
<path fill-rule="evenodd" clip-rule="evenodd" d="M8.96065 5.50002C8.97395 5.50003 8.98709 5.50003 9.00003 5.50003H15C15.013 5.50003 15.0261 5.50003 15.0394 5.50002C15.2393 5.49989 15.4773 5.49974 15.6819 5.52726C15.929 5.56047 16.2707 5.64938 16.5607 5.93937C16.8507 6.22937 16.9396 6.5711 16.9728 6.81815C17.0003 7.02281 17.0002 7.26077 17.0001 7.46065C17 7.47395 17 7.48709 17 7.50003V10C17 10.013 17 10.0261 17.0001 10.0394C17.0002 10.2393 17.0003 10.4773 16.9728 10.6819C16.9396 10.929 16.8507 11.2707 16.5607 11.5607C16.2707 11.8507 15.929 11.9396 15.6819 11.9728C15.4773 12.0003 15.2393 12.0002 15.0394 12.0001C15.0261 12 15.013 12 15 12H9.00003C8.98709 12 8.97395 12 8.96065 12.0001C8.76078 12.0002 8.52281 12.0003 8.31815 11.9728C8.0711 11.9396 7.72937 11.8507 7.43937 11.5607C7.14938 11.2707 7.06047 10.929 7.02726 10.6819C6.99974 10.4773 6.99989 10.2393 7.00002 10.0394C7.00003 10.0261 7.00003 10.013 7.00003 10V7.50003C7.00003 7.48709 7.00003 7.47395 7.00002 7.46065C6.99989 7.26078 6.99974 7.02281 7.02726 6.81815C7.06047 6.5711 7.14938 6.22937 7.43937 5.93937C7.72937 5.64938 8.0711 5.56047 8.31815 5.52726C8.52281 5.49974 8.76078 5.49989 8.96065 5.50002ZM8.58083 7.51C8.58082 7.50999 8.58134 7.5099 8.58242 7.50974ZM9.00973 7.08244C9.0099 7.08134 9.00999 7.08082 9.01 7.08083ZM15.4192 7.51C15.4192 7.51001 15.4187 7.50993 15.4176 7.50973ZM14.9901 7.08083C14.9901 7.08082 14.9902 7.08133 14.9903 7.0824ZM15 7.50003V10H9.00003V7.50003H15ZM8.58083 9.99007C8.58085 9.99006 8.58139 9.99014 8.58244 9.99033ZM9.00974 10.4176C9.00993 10.4187 9.01001 10.4192 9.01 10.4192ZM14.9901 10.4192C14.9901 10.4192 14.9901 10.4187 14.9903 10.4176ZM15.4175 9.99035C15.4187 9.99014 15.4192 9.99006 15.4192 9.99007Z" fill="white"/>
<path fill-rule="evenodd" clip-rule="evenodd" d="M7.015 19C7.01555 19.0088 7.01612 19.0176 7.01671 19.0262C7.03227 19.2542 7.05888 19.3411 7.07612 19.3827C7.17762 19.6277 7.37229 19.8224 7.61732 19.9239C7.65893 19.9411 7.74576 19.9677 7.97376 19.9833C8.21074 19.9995 8.52038 20 9 20H15C15.4796 20 15.7893 19.9995 16.0262 19.9833C16.2542 19.9677 16.3411 19.9411 16.3827 19.9239C16.6277 19.8224 16.8224 19.6277 16.9239 19.3827C16.9411 19.3411 16.9677 19.2542 16.9833 19.0262C16.9839 19.0176 16.9844 19.0088 16.985 19H7.015ZM18 18V17H6V18H5C5 18.0107 5 18.0214 5 18.032C4.99999 18.4706 4.99998 18.8491 5.02135 19.1624C5.04386 19.4922 5.09336 19.8221 5.22836 20.1481C5.53284 20.8831 6.11687 21.4672 6.85195 21.7716C7.17788 21.9066 7.50779 21.9561 7.83762 21.9787C8.15088 22 8.52936 22 8.96801 22H15.032C15.4706 22 15.8491 22 16.1624 21.9787C16.4922 21.9561 16.8221 21.9066 17.1481 21.7716C17.8831 21.4672 18.4672 20.8831 18.7716 20.1481C18.9066 19.8221 18.9561 19.4922 18.9787 19.1624C19 18.8491 19 18.4706 19 18.032V18H18Z" fill="white"/>
<path d="M9 14.5C9 15.0523 8.55228 15.5 8 15.5C7.44772 15.5 7 15.0523 7 14.5C7 13.9477 7.44772 13.5 8 13.5C8.55228 13.5 9 13.9477 9 14.5Z" fill="white"/>
<path fill-rule="evenodd" clip-rule="evenodd" d="M12.5 14.5C12.5 14.2239 12.7239 14 13 14L16.5 14C16.7761 14 17 14.2239 17 14.5C17 14.7761 16.7761 15 16.5 15L13 15C12.7239 15 12.5 14.7761 12.5 14.5Z" fill="white"/>
</svg>

<svg width="24" height="24" fill="none" xmlns="http://www.w3.org/2000/svg"><path fill-rule="evenodd" clip-rule="evenodd" d="M8.434 2h7.132c.886 0 1.65 0 2.262.082.655.088 1.284.287 1.793.797.51.51.709 1.138.797 1.793.082.612.082 1.376.082 2.262v7.132c0 .886 0 1.65-.082 2.262-.088.655-.287 1.284-.797 1.793-.51.51-1.138.709-1.793.797-.612.082-1.376.082-2.262.082H8.434c-.886 0-1.65 0-2.262-.082-.655-.088-1.284-.287-1.793-.797-.51-.51-.709-1.138-.797-1.793-.082-.612-.082-1.376-.082-2.262V7v-.066c0-.886 0-1.65.082-2.262.088-.655.287-1.284.797-1.793.51-.51 1.138-.709 1.793-.797C6.784 2 7.548 2 8.434 2zM6.44 4.064c-.434.059-.57.153-.646.229-.076.076-.17.212-.229.646C5.502 5.4 5.5 6.029 5.5 7v7c0 .971.002 1.599.064 2.061.059.434.153.57.229.646.076.076.212.17.646.229.462.062 1.09.064 2.061.064h7c.971 0 1.599-.002 2.061-.064.434-.059.57-.153.646-.229.076-.076.17-.212.229-.646.062-.462.064-1.09.064-2.061V7c0-.971-.002-1.599-.064-2.061-.059-.434-.153-.57-.229-.646-.076-.076-.212-.17-.646-.229C17.1 4.002 16.471 4 15.5 4h-7c-.971 0-1.599.002-2.061.064z" fill="#fff"/><path d="M8 7.5c0-.471 0-.707.146-.854C8.293 6.5 8.53 6.5 9 6.5h6c.471 0 .707 0 .854.146.146.147.146.383.146.854V10c0 .471 0 .707-.146.854C15.707 11 15.47 11 15 11H9c-.471 0-.707 0-.854-.146C8 10.707 8 10.47 8 10V7.5z" fill="#fff"/><path fill-rule="evenodd" clip-rule="evenodd" d="M8.96 5.5h6.08c.2 0 .437 0 .642.027.247.033.589.122.879.412.29.29.379.632.412.88.027.204.027.442.027.642v2.579c0 .2 0 .437-.027.642a1.488 1.488 0 0 1-.412.879c-.29.29-.632.379-.88.412a5.04 5.04 0 0 1-.642.027H8.96c-.2 0-.437 0-.642-.027a1.488 1.488 0 0 1-.879-.412 1.488 1.488 0 0 1-.412-.88A5.031 5.031 0 0 1 7 10.04V7.5v-.04c0-.2 0-.437.027-.642.033-.247.122-.589.412-.879.29-.29.632-.379.88-.412.204-.027.442-.027.642-.027zm-.38 2.01h.002zm.43-.428v-.001zm6.41.428h-.002zm-.43-.43v.002zm.01.42V10H9V7.5h6zM8.58 9.99h.002zm.43.428a.03.03 0 0 1 0 .001zm5.98.001v-.001zm.428-.429h.001zM7.014 19l.002.026c.015.228.042.315.06.357a1 1 0 0 0 .54.54c.042.018.129.045.357.06C8.21 20 8.52 20 9 20h6c.48 0 .79 0 1.026-.017.228-.015.315-.042.357-.06a1 1 0 0 0 .54-.54c.018-.042.045-.129.06-.357l.002-.026h-9.97zM18 18v-1H6v1H5v.032c0 .439 0 .817.021 1.13.023.33.072.66.207.986a3 3 0 0 0 1.624 1.624c.326.135.656.184.986.207.313.021.691.021 1.13.021h6.064c.439 0 .817 0 1.13-.021.33-.023.66-.072.986-.207a3 3 0 0 0 1.624-1.624c.135-.326.184-.656.207-.986.021-.313.021-.691.021-1.13V18h-1z" fill="#fff"/><path d="M9 14.5a1 1 0 1 1-2 0 1 1 0 0 1 2 0z" fill="#fff"/><path fill-rule="evenodd" clip-rule="evenodd" d="M12.5 14.5a.5.5 0 0 1 .5-.5h3.5a.5.5 0 0 1 0 1H13a.5.5 0 0 1-.5-.5z" fill="#fff"/></svg>
